annanekrasova/img/titles/about.svg

<svg width="201" height="201" viewBox="0 0 201 201" fill="none" xmlns="http://www.w3.org/2000/svg">
<path d="M105.198 1.60744L106.022 18.8889L109.977 19.538L116.05 3.94757L116.595 4.03696L117.366 20.7505L121.322 21.3995L127.626 5.28779L125.779 4.98465L119.706 20.575L119.138 20.4818L118.413 3.77601L114.411 3.11922L108.362 18.7135L107.793 18.6202L107.045 1.91057L105.198 1.60744Z" fill="#B12B00"/>
<path d="M147.093 13.6731L143.755 20.6431L134.743 16.347L138.081 9.37701L136.304 8.53019L128.996 23.7906L130.773 24.6375L134.017 17.8623L143.03 22.1583L139.785 28.9335L141.54 29.77L148.848 14.5096L147.093 13.6731Z" fill="#B12B00"/>
<path d="M150.958 25.1955C147.847 29.0382 147.756 33.804 151.643 36.9363C155.492 40.0385 160.143 38.9471 163.254 35.1044C166.35 31.2804 166.441 26.5146 162.591 23.4124C158.704 20.2801 154.053 21.3715 150.958 25.1955ZM152.49 26.4304C155.027 23.2966 158.413 22.2033 161.534 24.7182C164.636 27.218 164.259 30.7358 161.722 33.8696C159.17 37.022 155.802 38.1304 152.7 35.6306C149.579 33.1157 149.938 29.5828 152.49 26.4304Z" fill="#B12B00"/>
<path d="M173.383 62.3947L174.402 64.0505L185.977 50.5742L183.864 47.14L166.567 51.3153L167.598 52.9915L174.354 51.3312L177.913 57.1162L173.383 62.3947ZM176.076 50.924L184.299 48.9001L184.588 49.3702L179.069 55.7891L176.076 50.924Z" fill="#B12B00"/>
<path d="M176.504 67.7046L177.074 69.5881L191.39 65.2734L192.655 64.5662L192.815 65.0945L178.549 74.4578L179.696 78.2479L196.773 78.1646L196.94 78.7158L195.487 78.8029L181.171 83.1176L181.741 85.0011L197.941 80.1185L196.801 76.3514L179.731 76.4577L179.571 75.9294L193.852 66.6121L192.704 62.822L176.504 67.7046Z" fill="#B12B00"/>
<path d="M197.758 109.116L199.436 109.184L199.826 99.664L198.148 99.5956L197.993 103.384L184.444 102.832L184.599 99.0432L182.92 98.9748L182.53 108.495L184.209 108.563L184.363 104.798L197.912 105.351L197.758 109.116Z" fill="#B12B00"/>
<path d="M184.381 123.365L183.847 124.882C185.206 125.358 185.232 126.079 185.017 126.69C184.436 128.343 182.098 129.203 181.333 131.376C180.887 132.644 181.254 134.349 183.542 135.15L184.075 133.633C182.716 133.157 182.667 132.428 182.883 131.817C183.456 130.187 185.802 129.305 186.567 127.131C187.005 125.886 186.669 124.166 184.381 123.365Z" fill="#B12B00"/>
<path d="M183.653 155.891L168.459 147.593L165.837 150.624L175.981 163.917L175.62 164.334L160.939 156.288L158.317 159.319L168.785 173.081L170.01 171.665L159.866 158.372L160.243 157.937L174.892 166.02L177.546 162.952L167.386 149.677L167.763 149.241L182.428 157.306L183.653 155.891Z" fill="#B12B00"/>
<path d="M151.669 185.22L147.393 178.783L155.721 173.276L159.997 179.714L161.639 178.629L152.278 164.534L150.636 165.619L154.792 171.877L146.464 177.383L142.307 171.126L140.686 172.198L150.047 186.292L151.669 185.22Z" fill="#B12B00"/>
<path d="M139.691 182.501C138.004 177.854 133.964 175.307 129.27 177.004C124.62 178.684 123.152 183.221 124.839 187.868C126.518 192.493 130.557 195.04 135.207 193.359C139.902 191.663 141.37 187.126 139.691 182.501ZM137.84 183.17C139.216 186.96 138.403 190.418 134.634 191.78C130.887 193.134 128.066 190.989 126.69 187.199C125.306 183.387 126.096 179.937 129.843 178.583C133.612 177.221 136.456 179.357 137.84 183.17Z" fill="#B12B00"/>
<path d="M96.2322 182.334L94.2885 182.366L100.011 199.195L104.042 199.13L109.239 182.124L107.271 182.155L105.267 188.813L98.4757 188.923L96.2322 182.334ZM104.742 190.502L102.306 198.606L101.754 198.615L99.031 190.594L104.742 190.502Z" fill="#B12B00"/>
<path d="M90.0103 182.145L88.1043 181.654L84.3646 196.131L84.3126 197.58L83.778 197.442L83.1766 180.387L79.3414 179.401L70.5523 194.042L69.9944 193.898L70.674 192.611L74.4137 178.134L72.5077 177.644L68.2758 194.026L72.0878 195.006L80.8537 180.36L81.3883 180.497L81.9432 197.541L85.7784 198.527L90.0103 182.145Z" fill="#B12B00"/>
<path d="M43.4 178.702L42.4589 180.094L50.3629 185.414L51.304 184.023L48.1583 181.905L55.7544 170.673L58.9001 172.79L59.8412 171.398L51.9372 166.078L50.9961 167.469L54.1219 169.574L46.5258 180.806L43.4 178.702Z" fill="#B12B00"/>
<path d="M38.2994 159.912L37.2798 158.669C36.1642 159.579 35.5336 159.227 35.1227 158.726C34.0117 157.371 34.4947 154.932 33.0337 153.15C32.1814 152.111 30.5314 151.537 28.6536 153.07L29.6732 154.314C30.7888 153.403 31.438 153.741 31.8489 154.242C32.9446 155.578 32.4769 158.035 33.9379 159.817C34.7749 160.837 36.4216 161.445 38.2994 159.912Z" fill="#B12B00"/>
<path d="M10.8071 142.494L25.7694 133.812L24.5234 130.002L7.88516 131.784L7.71356 131.26L22.1957 122.885L20.9498 119.076L3.74184 120.892L4.32378 122.671L20.962 120.889L21.1411 121.436L6.64405 129.765L7.9049 133.621L24.5357 131.815L24.7148 132.363L10.2252 140.715L10.8071 142.494Z" fill="#B12B00"/>
<path d="M2.23266 99.8577L9.95554 99.5765L10.3205 109.554L2.5976 109.835L2.66954 111.802L19.5783 111.186L19.5064 109.219L11.9994 109.493L11.6344 99.5153L19.1415 99.242L19.0704 97.2993L2.1616 97.915L2.23266 99.8577Z" fill="#B12B00"/>
<path d="M10.8923 91.1043C15.739 92.0802 20.0134 89.9541 21.0031 85.0612C21.9833 80.2154 18.87 76.6017 14.0233 75.6258C9.20007 74.6547 4.92569 76.7808 3.94547 81.6266C2.95572 86.5195 6.06907 90.1332 10.8923 91.1043ZM11.2824 89.1754C7.32978 88.3795 4.79776 85.8867 5.59241 81.9582C6.3823 78.0533 9.68042 76.7589 13.6331 77.5548C17.6093 78.3554 20.1461 80.8247 19.3562 84.7296C18.5615 88.6581 15.2586 89.976 11.2824 89.1754Z" fill="#B12B00"/>
<path d="M33.8694 54.1147L34.8855 52.4574L17.5954 48.2868L15.4877 51.7241L27.0697 65.204L28.0984 63.5263L23.5484 58.2748L27.0988 52.4846L33.8694 54.1147ZM22.403 56.929L16.8622 50.5385L17.1507 50.068L25.3888 52.0595L22.403 56.929Z" fill="#B12B00"/>
<path d="M37.0845 48.9874L38.4967 47.6168L28.0585 36.9113L26.8461 36.1148L27.2422 35.7303L42.1478 44.0731L44.9894 41.3151L37.0416 26.2194L37.4549 25.8182L38.2023 27.066L48.6405 37.7715L50.0527 36.4008L38.2407 24.2863L35.4162 27.0276L43.3813 42.1067L42.9852 42.4911L28.1141 34.1149L25.2724 36.8729L37.0845 48.9874Z" fill="#B12B00"/>
<path d="M64.1589 11.0646L63.4497 9.54167L54.8052 13.5487L55.5145 15.0717L58.9548 13.4769L64.6791 25.7694L61.2388 27.3642L61.948 28.8872L70.5924 24.8801L69.8832 23.3571L66.4646 24.9418L60.7403 12.6493L64.1589 11.0646Z" fill="#B12B00"/>
<path d="M83.0077 16.3408L84.6006 16.1209C84.4027 14.6945 85.0321 14.3411 85.674 14.2525C87.4095 14.0128 89.2425 15.6979 91.5248 15.3828C92.8562 15.1989 94.2049 14.092 93.8718 11.691L92.2789 11.911C92.4768 13.3373 91.8507 13.7145 91.2088 13.8032C89.497 14.0395 87.6403 12.3577 85.358 12.6729C84.0504 12.8534 82.6746 13.9398 83.0077 16.3408Z" fill="#B12B00"/>
</svg>

<svg width="201" height="201" fill="none" xmlns="http://www.w3.org/2000/svg"><path d="M105.198 1.607l.824 17.282 3.955.649 6.073-15.59.545.089.771 16.713 3.956.65 6.304-16.112-1.847-.303-6.073 15.59-.568-.093-.725-16.706-4.002-.657-6.049 15.595-.569-.094-.748-16.71-1.847-.303zm41.895 12.066l-3.338 6.97-9.012-4.296 3.338-6.97-1.777-.847-7.308 15.26 1.777.848 3.244-6.776 9.013 4.296-3.245 6.775 1.755.837 7.308-15.26-1.755-.837zm3.865 11.522c-3.111 3.843-3.202 8.609.685 11.741 3.849 3.102 8.5 2.011 11.611-1.832 3.096-3.824 3.187-8.59-.663-11.692-3.887-3.132-8.538-2.04-11.633 1.784zm1.532 1.235c2.537-3.133 5.923-4.227 9.044-1.712 3.102 2.5 2.725 6.018.188 9.152-2.552 3.152-5.92 4.26-9.022 1.76-3.121-2.514-2.762-6.047-.21-9.2zm20.893 35.965l1.019 1.655 11.575-13.476-2.113-3.434-17.297 4.175 1.031 1.677 6.756-1.66 3.559 5.784-4.53 5.279zm2.693-11.471l8.223-2.024.289.47-5.519 6.42-2.993-4.866zm.428 16.781l.57 1.883 14.316-4.315 1.265-.707.16.528-14.266 9.364 1.147 3.79 17.077-.083.167.55-1.453.088-14.316 4.315.57 1.883 16.2-4.883-1.14-3.767-17.07.107-.16-.529 14.281-9.317-1.148-3.79-16.2 4.883zm21.254 41.411l1.678.068.39-9.52-1.678-.068-.155 3.788-13.549-.552.155-3.789-1.679-.068-.39 9.52 1.679.068.154-3.765 13.549.553-.154 3.765zm-13.377 14.249l-.534 1.517c1.359.476 1.385 1.197 1.17 1.808-.581 1.653-2.919 2.513-3.684 4.686-.446 1.268-.079 2.973 2.209 3.774l.533-1.517c-1.359-.476-1.408-1.205-1.192-1.816.573-1.63 2.919-2.512 3.684-4.686.438-1.245.102-2.965-2.186-3.766zm-.728 32.526l-15.194-8.298-2.622 3.031 10.144 13.293-.361.417-14.681-8.046-2.622 3.031 10.468 13.762 1.225-1.416-10.144-13.293.377-.435 14.649 8.083 2.654-3.068-10.16-13.275.377-.436 14.665 8.065 1.225-1.415zm-31.984 29.329l-4.276-6.437 8.328-5.507 4.276 6.438 1.642-1.085-9.361-14.095-1.642 1.085 4.156 6.258-8.328 5.506-4.157-6.257-1.621 1.072 9.361 14.094 1.622-1.072zm-11.978-2.719c-1.687-4.647-5.727-7.194-10.421-5.497-4.65 1.68-6.118 6.217-4.431 10.864 1.679 4.625 5.718 7.172 10.368 5.491 4.695-1.696 6.163-6.233 4.484-10.858zm-1.851.669c1.376 3.79.563 7.248-3.206 8.61-3.747 1.354-6.568-.791-7.944-4.581-1.384-3.812-.594-7.262 3.153-8.616 3.769-1.362 6.613.774 7.997 4.587zm-41.608-.836l-1.944.032 5.723 16.829 4.031-.065 5.197-17.006-1.968.031-2.004 6.658-6.791.11-2.244-6.589zm8.51 8.168l-2.436 8.104-.552.009-2.723-8.021 5.711-.092zm-14.732-8.357l-1.906-.491-3.74 14.477-.051 1.449-.535-.138-.601-17.055-3.836-.986-8.789 14.641-.558-.144.68-1.287 3.74-14.477-1.906-.49-4.232 16.382 3.812.98 8.766-14.646.534.137.555 17.044 3.835.986 4.232-16.382zm-46.61-3.443l-.941 1.392 7.904 5.32.941-1.391-3.146-2.118 7.596-11.232 3.146 2.117.941-1.392-7.904-5.32-.94 1.391 3.125 2.105-7.596 11.232-3.126-2.104zm-5.1-18.79l-1.02-1.243c-1.116.91-1.746.558-2.157.057-1.111-1.355-.628-3.794-2.09-5.576-.852-1.039-2.502-1.613-4.38-.08l1.02 1.244c1.116-.911 1.765-.573 2.176-.072 1.096 1.336.628 3.793 2.089 5.575.837 1.02 2.484 1.628 4.361.095zm-27.493-17.418l14.962-8.682-1.246-3.81-16.638 1.782-.171-.524 14.482-8.375-1.246-3.809-17.208 1.816.582 1.779 16.638-1.782.18.547-14.498 8.329 1.26 3.856 16.632-1.806.179.548-14.49 8.352.582 1.779zM2.233 99.858l7.723-.282.364 9.978-7.722.281.072 1.967 16.908-.616-.072-1.967-7.507.274-.365-9.978 7.508-.273-.072-1.943-16.908.616.07 1.943zm8.659-8.754c4.847.976 9.121-1.15 10.111-6.043.98-4.846-2.133-8.46-6.98-9.435-4.823-.971-9.097 1.155-10.078 6-.99 4.893 2.124 8.507 6.947 9.478zm.39-1.929c-3.952-.796-6.484-3.288-5.69-7.217.79-3.905 4.088-5.2 8.041-4.403 3.976.8 6.513 3.27 5.723 7.175-.795 3.928-4.097 5.246-8.074 4.445zm22.588-35.06l1.016-1.658-17.29-4.17-2.108 3.437 11.582 13.48 1.028-1.678-4.55-5.251 3.55-5.79 6.771 1.63zm-11.467 2.814l-5.54-6.39.288-.471 8.238 1.992-2.986 4.869zm14.681-7.942l1.413-1.37L28.058 36.91l-1.212-.796.396-.385 14.906 8.343 2.841-2.758-7.947-15.096.413-.4.747 1.247 10.439 10.706 1.412-1.371L38.24 24.286l-2.825 2.742 7.965 15.079-.396.384-14.87-8.376-2.843 2.758 11.813 12.114zm27.075-37.922l-.71-1.523-8.644 4.007.71 1.523 3.44-1.595 5.724 12.292-3.44 1.595.709 1.523 8.644-4.007-.709-1.523-3.418 1.585-5.725-12.293 3.419-1.584zm18.849 5.275l1.593-.22c-.198-1.426.431-1.779 1.073-1.868 1.735-.24 3.569 1.446 5.85 1.13 1.332-.183 2.68-1.29 2.348-3.691l-1.593.22c.198 1.426-.428 1.803-1.07 1.892-1.712.236-3.569-1.445-5.851-1.13-1.308.18-2.683 1.267-2.35 3.668z" fill="#B12B00"/></svg>
